X: 4
T: Under the Greenwood Tree
C: Arne
K:Eb
M:6/8
L: 1/8
"Eb" B>AG "Ab" c2 "Bb" d | "Eb" e3 "Eb" z2 B | "Ab" cde "Fm" A2 G | "Bb" F3 "Bb" z2 B |
"Eb" G/A/BB "Eb" B2 B | "Bb" B3 "Bb" z2 B | "Eb" G B2 "Eb" e B2 | "Bb" B2 B "Bb" fdB |
"Cm" e3 "Bb" d3 | "F" c3 "F" z2 f | "Bb" d/e/ff "Bb" f2 f | "F" f3 "F" =A2 c | "Bb" f3 "Bb" B3 | "F" =A3 "F" z2 f |
"Bb" df "Bb" z z3 | "Bb" df z "Bb" z2 B | "Eb" eed "F" ccB | "Eb" g3 "Bb" f2 e |
"Bb" dcB "F" cF=A | "Bb" B B2 "Bb" z3 !fine! | "Bb" z3 "Bb" z3 | "Eb" B>AG "Eb7" B _d2 | "Ab" c>BA "Ab" z2 c |
"Eb" BGE "Eb7" _D2 D | "Ab" C (A2 "Ab" A3) | "Bb" fdB "F" =Ace | "Bb" dcB "Bb" z2 d | "F" c=AF "F" E2 E |
"Bb" D B2 "Bb" z3 | "G" d=BG "G" e2d | "Cm" edc "Cm" z2 A | "Ab" A3 "Cm" G3 | "Cm" z3 "Cm" z2 G | "Fm" AGF "G7" =B2 c | "Cm" C3 "Cm" z3 |
